imagens/comidaicon-animais.svg

<svg xmlns="http://www.w3.org/2000/svg" xmlns:xlink="http://www.w3.org/1999/xlink" width="1000" zoomAndPan="magnify" viewBox="0 0 750 749.999995" height="1000" preserveAspectRatio="xMidYMid meet" version="1.0"><defs><clipPath id="2d6dc5881c"><path d="M 375 0 C 167.894531 0 0 167.894531 0 375 C 0 582.105469 167.894531 750 375 750 C 582.105469 750 750 582.105469 750 375 C 750 167.894531 582.105469 0 375 0 Z M 375 0 " clip-rule="nonzero"/></clipPath></defs><g clip-path="url(#2d6dc5881c)"><rect x="-75" width="900" fill="#ff914d" y="-74.999999" height="899.999994" fill-opacity="1"/></g><path fill="#000000" d="M 201.9375 437.125 C 197.785156 372.453125 220.730469 321.605469 247.6875 292.035156 C 274.652344 262.472656 310.980469 248.363281 364.992188 238.601562 C 419.003906 228.839844 496.089844 246.421875 544.933594 196.175781 C 552.660156 508.597656 325.496094 553.511719 214.257812 465.054688 C 253.023438 418.410156 296.421875 385.289062 355.816406 363.640625 C 398.464844 348.09375 437.050781 340.355469 476.714844 294.640625 C 418.679688 334.054688 371.964844 336.945312 337.445312 347.824219 C 286.164062 363.988281 245.625 385.699219 201.9375 437.125 Z M 201.9375 437.125 " fill-opacity="1" fill-rule="evenodd"/></svg>

<svg xmlns="http://www.w3.org/2000/svg" width="1000" height="1000" version="1.0" viewBox="0 0 750 750"><defs><clipPath id="a"><path d="M375 0C167.895 0 0 167.895 0 375s167.895 375 375 375 375-167.895 375-375S582.105 0 375 0Zm0 0"/></clipPath></defs><g clip-path="url(#a)"><path fill="#ff914d" d="M-75-75h900v900H-75z"/></g><path fill-rule="evenodd" d="M201.938 437.125c-4.153-64.672 18.792-115.52 45.75-145.09 26.964-29.562 63.292-43.672 117.304-53.433 54.012-9.762 131.098 7.82 179.942-42.426 7.726 312.422-219.438 357.336-330.676 268.879 38.765-46.645 82.164-79.766 141.558-101.414 42.649-15.547 81.235-23.286 120.899-69-58.035 39.414-104.75 42.304-139.27 53.183-51.28 16.164-91.82 37.875-135.507 89.301Zm0 0"/></svg>
